X: 41614
T: Up In The Garret
R: slip jig
M: 9/8
K: Adorian
dcB ABG A2e|dcB A2d efg|dcB ABG A2e|dBG GFG Bcd
dcB ABG A2e|dcB A2d efg|dcB ABG A2e|dBG GFG Bcd|
|:~B3 e2d e2g|~B3 e2d efg|~B3 e2d efg|dBG GFG Bcd:|

